X:245
T:Farewell to Argyle
C:Francis Carter
%%MIDI beat 100 95 80
S:Colin Hume's website,  colinhume.com  - chords can also be printed below the stave.
N:For the dance "Cornish Waltz" by Francis Carter.
Q:1/4=120
M:3/4
L:1/4
K:G
d | "G"d2B | GBd | "C"gfe | "G"d2d | "D7"d2c | ABc | "G"e2d | B2 |
d | "G"d2B | GBd | "C"gfe | "G"d3 | "D7"c2A/F/ | DFA | F2G | A2 |
d | "G"dBG | dBG | "D"F2G | A3 | "D7"cAF | cAF | "G"e2d | B2 |
|: d | "G"d2B | GBd | "C"g2e | "G"d2d | "D7"d2c | Ace | a2F | "G"G2 :|
